X: 23090
T: Launching The Boat
R: reel
M: 4/4
K: Dmajor
|:defd AGFA|BE~E2 BAFA|defd AGFD|EDEF GABc|
defd AGFA|BE~E2 BAFG|A2FA DAFA|1 EDCD EDDA:|2 EDCD EDDe||
|:fd~d2 fage|fd~d2 afgf|efgf ~g3f|efga bgag|
fd~d2 edBc|defd AGFG|A2FA DAFA|1 EDCD EDDe:|2 EDCD EDDA||

